arkscan/icons/bitmart.svg

<svg width="200" height="200" viewBox="0 0 200 200" fill="none" xmlns="http://www.w3.org/2000/svg">
<path fill-rule="evenodd" clip-rule="evenodd" d="M20.8416 189.417H32.4273V196.764H20.8416V189.417ZM165.599 138.705C165.599 148.479 160.874 155.825 153.916 159.515C146.958 163.204 137.152 165.307 120.518 165.307H19.3853V160.485H120.032C135.372 160.485 145.696 158.026 150.777 155.243C156.343 152.201 160.13 144.822 160.13 138.673C160.13 129.061 153.657 123.981 148.738 121.068C146.246 119.579 137.961 115.858 116.117 115.858H77.7348V111.036H117.023C141.651 111.036 146.861 113.463 152.848 117.055C159.223 120.906 165.599 127.767 165.599 138.705ZM121.068 62.6861H86.1166V66.7637H121.068V62.6861ZM49.7736 50.2912H122.46V54.3689H49.7736V50.2912ZM75.0487 62.6861H31.1652V66.7637H75.0487V62.6861ZM44.4985 34.9191H63.6571V38.4142H44.4985V34.9191ZM78.6733 175.21H32.3626V180.291H78.6409V175.21H78.6733ZM32.3626 142.913H81.5535V147.152H32.3626V142.913ZM58.6733 127.767H42.492V132.006H58.6733V127.767ZM90.5503 143.204H122.363V146.828H90.5503V143.204ZM122.686 127.767H67.9937V132.006H122.686V127.767ZM161.78 63.3333C161.748 72.7184 158.932 81.9094 153.657 89.7087C152.977 89.3204 152.298 88.932 151.618 88.576C158.123 81.7476 161.748 72.7184 161.78 63.3333ZM160.647 94.4336L160.388 94.2395C166.473 85.5016 169.482 74.8543 169.482 62.3624C169.482 43.7864 163.107 29.2556 150.356 18.7055C137.638 8.15532 120.097 2.9126 97.7348 2.9126H42.1037V10.6796H96.7315C115.728 10.6796 132.654 14.9191 143.398 23.6569C153.398 31.8123 157.055 38.8349 159.968 49.3204C156.99 39.7411 150 33.5922 145.664 29.9676C138.058 23.5922 128.609 19.0938 102.848 19.0938H59.9354V26.6666H101.877C123.851 26.6666 131.942 29.3851 139.321 34.8543C148.803 41.877 154.66 50.2589 154.66 62.3301C154.66 73.2362 150.842 79.0615 144.401 85.1132C143.657 84.822 142.913 84.5307 142.136 84.2718L142.848 83.8835C149.806 80.0323 154.628 72.6861 154.628 62.2977C154.628 50.9709 148.155 43.9158 141.78 39.9353C135.825 36.2136 130.162 33.6893 105.987 33.6893H75.1458V38.7378H105.113C126.958 38.7378 135.21 42.6213 137.735 44.1424C142.654 47.1521 149.126 52.3624 149.126 62.3624C149.126 68.7378 145.372 76.4077 139.806 79.5469C137.994 80.5501 136.084 81.3592 134.11 81.9741C125.825 80.0971 117.346 79.1909 108.867 79.2556H71.6506V87.0226H107.832C126.829 87.0226 144.013 90.9385 154.499 100C162.427 106.731 168.188 115.663 171.068 125.663C168.123 116.084 162.039 110.291 156.764 106.311C148.803 100.291 139.677 95.4369 113.916 95.4369H55.5988V103.01H112.977C134.952 103.01 143.01 105.728 150.421 111.197C159.903 118.22 165.664 126.602 165.664 138.673C165.664 150.324 159.806 158.835 150.291 165.858C140.55 173.042 125.696 173.236 119.644 173.236H87.7671V180.906H111.586C131.521 180.906 144.855 179.191 156.376 170.647C167.185 162.621 172.945 152.201 172.945 138.77C173.042 145.987 171.489 153.107 168.414 159.644C165.34 166.149 160.809 171.877 155.178 176.375C144.272 185.405 124.79 189.385 105.308 189.385H42.5568V197.087H105.728C129.256 197.087 147.605 191.974 160.809 181.748C174.013 171.521 180.615 157.184 180.615 138.673C180.583 120.065 174.175 105.534 161.424 95.0162C161.165 94.822 160.906 94.6278 160.647 94.4336Z" fill="#1F2020"/>
</svg>

<svg width="200" height="200" fill="none" xmlns="http://www.w3.org/2000/svg"><path fill-rule="evenodd" clip-rule="evenodd" d="M20.842 189.417h11.585v7.347H20.842v-7.347Zm144.757-50.712c0 9.774-4.725 17.12-11.683 20.81-6.958 3.689-16.764 5.792-33.398 5.792H19.385v-4.822h100.647c15.34 0 25.664-2.459 30.745-5.242 5.566-3.042 9.353-10.421 9.353-16.57 0-9.612-6.473-14.692-11.392-17.605-2.492-1.489-10.777-5.21-32.621-5.21H77.735v-4.822h39.288c24.628 0 29.838 2.427 35.825 6.019 6.375 3.851 12.751 10.712 12.751 21.65Zm-44.531-76.019H86.117v4.078h34.951v-4.078ZM49.774 50.291h72.686v4.078H49.774V50.29Zm25.275 12.395H31.165v4.078H75.05v-4.078ZM44.499 34.92h19.158v3.495H44.5V34.92ZM78.672 175.21h-46.31v5.081H78.64v-5.081h.032Zm-46.31-32.297h49.19v4.239h-49.19v-4.239Zm26.31-15.146H42.492v4.239h16.181v-4.239Zm31.877 15.437h31.813v3.624H90.55v-3.624Zm32.136-15.437H67.994v4.239h54.692v-4.239Zm39.094-64.434a47.377 47.377 0 0 1-8.123 26.376c-.68-.389-1.359-.777-2.039-1.133a36.77 36.77 0 0 0 10.162-25.243Zm-1.133 31.1-.259-.194c6.085-8.737 9.094-19.385 9.094-31.877 0-18.576-6.375-33.106-19.126-43.657-12.718-10.55-30.259-15.792-52.621-15.792H42.104v7.767H96.73c18.997 0 35.923 4.24 46.667 12.977 10 8.155 13.657 15.178 16.57 25.663-2.978-9.579-9.968-15.728-14.304-19.352-7.606-6.376-17.055-10.874-42.816-10.874H59.935v7.573h41.942c21.974 0 30.065 2.718 37.444 8.187 9.482 7.023 15.339 15.405 15.339 27.476 0 10.906-3.818 16.731-10.259 22.783-.744-.291-1.488-.582-2.265-.841l.712-.389c6.958-3.85 11.78-11.197 11.78-21.585 0-11.327-6.473-18.382-12.848-22.363-5.955-3.721-11.618-6.246-35.793-6.246H75.146v5.049h29.967c21.845 0 30.097 3.883 32.622 5.404 4.919 3.01 11.391 8.22 11.391 18.22 0 6.376-3.754 14.046-9.32 17.185a30.452 30.452 0 0 1-5.696 2.427 110.48 110.48 0 0 0-25.243-2.718H71.651v7.767h36.181c18.997 0 36.181 3.916 46.667 12.977a52.847 52.847 0 0 1 16.569 25.663c-2.945-9.579-9.029-15.372-14.304-19.352-7.961-6.02-17.087-10.874-42.848-10.874H55.599v7.573h57.378c21.975 0 30.033 2.718 37.444 8.187 9.482 7.023 15.243 15.405 15.243 27.476 0 11.651-5.858 20.162-15.373 27.185-9.741 7.184-24.595 7.378-30.647 7.378H87.767v7.67h23.819c19.935 0 33.269-1.715 44.79-10.259 10.809-8.026 16.569-18.446 16.569-31.877a47.49 47.49 0 0 1-4.531 20.874 47.28 47.28 0 0 1-13.236 16.731c-10.906 9.03-30.388 13.01-49.87 13.01H42.557v7.702h63.171c23.528 0 41.877-5.113 55.081-15.339 13.204-10.227 19.806-24.564 19.806-43.075-.032-18.608-6.44-33.139-19.191-43.657l-.777-.582Z" fill="#1F2020"/></svg>
